!!!COM: Beethoven, Ludwig van
!!!CDT: 1770///-1827///
!!!OTL: Six Variations on a Swiss Song
!!!OMV: Variation 5
!!!OMD: Poco pi&ugrave; tranquillo
!!!OPS: WO 64
!!!ODT: ~1791///
!!!AGN: Variations
**kern	**dynam	**kern	**dynam
*Ipiano	*Ipiano	*Ipiano	*Ipiano
*clefF4	*clefF4	*clefG2	*clefG2
*k[b-]	*k[b-]	*k[b-]	*k[b-]
*met(C)	*met(C)	*met(C)	*met(C)
*M4/4	*M4/4	*M4/4	*M4/4
*MM116	*MM116	*MM116	*MM116
4r	.	(4c/	p
=63	=63	=63	=63
(4F\	.	(8f/L)	.
.	.	8a/	.
4E\	.	8g/	.
.	.	8b-/J	.
4F\	.	8g#/L	.
.	.	8a/J	.
4D\)	.	16b-/LL	.
.	.	16a/	.
.	.	16g/	.
.	.	16f/JJ	.
=64	=64	=64	=64
8r	.	[2cc\	.
8C\L	.	.	.
8F\	.	.	.
8A\J	.	.	.
(8c\L	.	8cc\L]	.
8d\	.	8b-\	.
8c\	.	8a\	.
8B-\J	.	8g\J	.
=65	=65	=65	=65
8A\L	.	4f/)	.
8c\	.	.	.
8B-\	.	4r	.
8A\J	.	.	.
8G\L	.	4r	.
8F\	.	.	.
8E\	.	(16b\LL	.
.	.	16cc\	.
8F\J)	.	16dd\	.
.	.	16cc\JJ)	.
=66	=66	=66	=66
(8E\L	.	(8cc\L	.
8G\	.	8ee\	.
8D\	.	8dd\	.
8G\J	.	8ff\J	.
8C\L	.	8dd#\L	.
8G\	.	8ee\J	.
8E\	.	16ff\LL	.
.	.	16ee\	.
8G\J)	.	16dd\	.
.	.	(16cc\JJ)	.
=67	=67	=67	=67
8r	.	2ff\	.
(8FF/L	.	.	.
8D/	.	.	.
8C/J	.	.	.
8BB/L	.	2dd\	.
8GG/	.	.	.
8G/	.	.	.
8F/J	.	.	.
=68	=68	=68	=68
8E\L	.	4cc\)	.
8F\	.	.	.
8G\	.	4r	.
8E\J	.	.	.
8C/L	.	4r	.
8D/	.	.	.
8C/	.	4cc\	.
8BB-/J	.	.	.
=69	=69	=69	=69
4AA/)	.	(8ff/L	.
.	.	8f/	.
8r	.	8ee/	.
(8c\	.	8f/J)	.
4B-'\)	.	8r	.
.	.	(8dd/L	.
4A'\	.	8f/	.
.	.	8cc/J)	.
=70	=70	=70	=70
4r	.	(8ff/L	.
.	.	8f/	.
8r	.	8ee/	.
(8c\	.	8f/J)	.
4B-'\)	.	8r	.
.	.	8dd/L	.
*	*	*^	*
(4G\	.	8cc/	4e\	p
.	.	8b-/J	.	.
=71	=71	=71	=71	=71
8F\L	.	(8a/L	4f\	.
8c\	.	8cc/	.	.
*	*	*v	*v	*
8G\	.	8b-/	.
8c\J	.	8ee/J	.
8A\L	.	8cc\L	.
8c\	.	8ff\	.
8B-\	.	8dd\	.
8d\J)	.	8gg\J)	.
=72	=72	=72	=72
(2c'\	.	8r	.
.	.	8a\ (8ff\L	.
.	.	8cc\ 8ee\	.
.	.	8b-\ 8dd\J	.
2C'/)	.	8a\ 8cc\L	.
.	.	8b-\ 8dd\	.
.	.	8a\ 8cc\	.
.	.	8g\ 8b-\J	.
=73	=73	=73	=73
2.FF/ 2.F/	.	8f/ 8a/L	p
.	.	8c/ 8g/	.
.	.	8A/ 8f/	.
.	.	8c/ 8g/J	.
.	.	4A/ 4f/)	.
==;	==;	==;	==;
*-	*-	*-	*-
!!!ENC: Craig Stuart Sapp
!!!END: 2004/06/07/
